X:1
T:The Bold Privateer
M:2/2
L:1/4
K:D
 D| F A A A| A A2 F| A A A G| E3| D| G G G G| B A E F| G G G E| D3|\
 B| d B G G| G3 B| d B A G| E3| D| A A A A| A F D E| G G G E| D3||\
